app/dist/common/images/sundrug-co-ltd.svg

<svg height="18" viewBox="0 0 18 18" width="18" xmlns="http://www.w3.org/2000/svg"><path d="m0 0h18v18h-18z" fill="#f0f3fa"/><path d="m4 8.93v.07h6v-5c-3.31 0-6 2.2-6 4.93z" fill="#ffe100"/><path d="m14 9.07v-.07h-6v5c3.31 0 6-2.2 6-4.93z" fill="#005eae"/><path d="m8 9h-4v4.85c4.96 0 6-3.2 6-4.85h4v-4.99c-4.77 0-5.9 3.35-6 4.99z" fill="#e60021"/></svg>

<!-- by TradingView --><svg width="18" height="18" viewBox="0 0 18 18" xmlns="http://www.w3.org/2000/svg"><path fill="#F0F3FA" d="M0 0h18v18H0z"/><path d="M4 8.93V9h6V4C6.69 4 4 6.2 4 8.93Z" fill="#FFE100"/><path d="M14 9.07V9H8v5c3.31 0 6-2.2 6-4.93Z" fill="#005EAE"/><path d="M8 9H4v4.85c4.96 0 6-3.2 6-4.85h4V4.01C9.23 4.01 8.1 7.36 8 9Z" fill="#E60021"/></svg>
